X:1
T:Title
%%score { ( 1 4 ) | ( 2 3 ) }
L:1/8
M:12/8
K:Ab
V:1 treble nm="Grand Piano"
V:4 treble 
V:2 treble 
V:3 treble 
V:1
 z12[Q:1/4=110] | z2 [CE] [CE]2 [CEA] B2 G F2 E |[M:4/4] c8 |[M:2/4] E A2 c |[M:6/4] e6 z6 | %5
[M:4/4] c8 |[M:2/4] z4 |[M:6/4] z2 [CE] [CE]2 [CEA] B2 G F2 E |[M:4/4] c8 |[M:2/4] E A2 c | %10
[M:6/4] e6 z6 |[M:4/4] A8 | AAA[Fd]- [Fd]2 [Fd][Fd] | [Fd][FA][=EB][_Ec]- [Ec]4 | %14
 [Ec][Ec][Ec][Ec]- [Ec]2 [EB][=DB] | [=DB][Dc][DB]E- E4 | EFGA- A2 GF | z2 z c- c4 | %18
 ccc[=Dc]- [Dc]2 [DB][DF] |[M:3/4] [=DF][_DG] [DB] [CA]3- | [CA]2 z2 z2 |] %21
V:2
 z6 z2 E E2 E | c6[K:bass] z6 |[M:4/4] [A,,A,]2 [A,C][A,C]- [A,C][A,C] .[A,C]2 |[M:2/4] z4 | %4
[M:6/4] z2 [E,G,] [E,G,]2 [E,G,E] [E,G,E]2 [E,G,E] [E,G,E]2 [E,G,E] | %5
[M:4/4] [A,,A,]2 A,,E,- E,C, .A,,2 |[M:2/4][K:treble] E E2 E |[M:6/4] c6[K:bass] z6 | %8
[M:4/4] [A,,A,]2 [A,C][A,C]- [A,C][A,C] .[A,C]2 |[M:2/4] z4 | %10
[M:6/4] z2 [E,G,] [E,G,]2 [E,G,E] [E,G,E]2 [E,G,E] [E,G,E]2 [E,G,D] | %11
[M:4/4] A,,2 A,,A,,- A,,A,, .A,,2 | A,A,A,[D,A,]- [D,A,]2 [D,A,][D,A,] | %13
 [D,A,][D,A,][D,A,][A,,A,]- [A,,A,]4 | [A,,A,][A,,A,][A,,A,][B,,G,]- [B,,G,]2 [B,,G,][B,,A,] | %15
 [B,,A,][B,,A,][B,,A,][E,G,]- [E,G,]4 | E,F,G,A,- A,2 G,F, | z2 z C- C4 | %18
 [F,=A,E][F,A,E][F,A,E][B,,_A,]- [B,,A,]2 [B,,A,][B,,B,] |[M:3/4] [B,,B,][E,B,] [E,G,] [A,,A,]3- | %20
 [A,,A,]2 z2 z2 |] %21
V:3
 x12 | z2[K:bass] A,, A,,2 A,, [E,G,D]2 [E,B,D] [E,A,D]2 [E,G,D] |[M:4/4] x8 |[M:2/4] x4 | %4
[M:6/4] x12 |[M:4/4] x8 |[M:2/4][K:treble] x4 | %7
[M:6/4] z2[K:bass] A,, A,,2 A,, [E,G,D]2 [E,B,D] [E,A,D]2 [E,G,D] |[M:4/4] x8 |[M:2/4] x4 | %10
[M:6/4] x12 |[M:4/4] x8 | x8 | x8 | x8 | x8 | x8 | G,A, .B,2 z [F,A,]2 [C,G,] | x8 |[M:3/4] x6 | %20
 x6 |] %21
V:4
 x12 | x12 |[M:4/4] C2 EE- EE .E2 |[M:2/4] x4 |[M:6/4] z2 E E2 B d2 d c2 B | %5
[M:4/4] E2 [CE][CE]- [CE][CE] .[CE]2 |[M:2/4] x4 |[M:6/4] x12 |[M:4/4] C2 EE- EE .E2 |[M:2/4] x4 | %10
[M:6/4] z2 E E2 B d2 d c2 B |[M:4/4] [A,C]2 [CE][DF]- [DF][DF] .[CE]2 | x8 | x8 | x8 | x8 | x8 | %17
 GA .B2 z F2 =E | x8 |[M:3/4] x6 | x6 |] %21

